X:1
T:Heilig ist herr Jesus Christus
T:Heilig ist herr Jesus Christus
T:Willem jan Hanegraaf
T:© wjhanegraaf 2007
T:© wjhanegraaf 2007
T:© wjhanegraaf 2007
C:Willem jan Hanegraaf
Z:© wjhanegraaf 2007
%%score [ 1 2 3 4 ]
L:1/8
Q:1/4=120
M:3/4
K:G
V:1 treble nm="Soprano" snm="S"
V:2 treble nm="Alto" snm="A"
V:3 treble-8 nm="Tenor" snm="T"
V:4 bass nm="Bass" snm="B"
V:1
 B4 A2 | B4 A2 | c6- | c2 B4 | A4 A2 | G4 G2 | F6- | F2 G4 | B4 A2 | B4 A2 | c6- | c2 B4 | A4 A2 | %13
w: Hei lig|hei lig|he|_ lig|hei lig|hei lig|hei|_ lig|hei lig|hei lig|hei|_ lig|hei lig|
 G4 G2 | F6- | F2 G4 | d4 d2 | c4 B2 | c2 B2 B2 | A6 | e4 e2 | d4 B2 | B4 A2 | G6 | B4 A2 | B4 A2 | %26
w: hei lig|hei|_ lig|hei lig|ist herr|je sus chris|tus|hei lig|ist herr|je sus|christ|hei lig|hei lig|
 c6- | c2 B4 | A4 A2 | G4 G2 | F6- | F2 G4 |] %32
w: hei|_ lig|hei lig|hei lig|hei|_ lig|
V:2
 G4 F2 | G4 F2 | G6- | G2 G4 | F4 F2 | D4 D2 | D6- | D2 D4 | G4 F2 | G4 F2 | G6- | G2 G4 | F4 F2 | %13
 D4 D2 | D6- | D2 D4 | B4 B2 | A4 A2 | G2 G2 G2 | F6 | c4 c2 | B4 G2 | G4 F2 | D6 | G4 F2 | G4 F2 | %26
 G6- | G2 G4 | F4 F2 | D4 D2 | D6- | D2 D4 |] %32
V:3
 d4 d2 | d4 d2 | e6- | e2 d4 | d4 d2 | B4 B2 | A6- | A2 B4 | d4 d2 | d4 d2 | e6- | e2 d4 | d4 d2 | %13
 B4 B2 | A6- | A2 B4 | g4 g2 | g4 d2 | e2 d2 d2 | d6 | g4 g2 | g4 d2 | d4 d2 | B6 | d4 d2 | d4 d2 | %26
 e6- | e2 d4 | d4 d2 | B4 B2 | A6- | A2 B4 |] %32
V:4
 G,4 D,2 | G,4 D,2 | C,2 D,2 E,2 | F,2 G,4 | D,4 A,,2 | G,,4 B,,2 | D,2 C,2 B,,2 | A,,2 G,,4 | %8
 G,4 D,2 | G,4 D,2 | C,2 D,2 E,2 | F,2 G,4 | D,4 A,,2 | G,,4 B,,2 | D,2 C,2 B,,2 | A,,2 G,,4 | %16
 G,4 G,2 | D,4 G,2 | C,2 D,2 G,2 | D,6 | C,4 E,2 | G,4 G,2 | D,4 D,,2 | G,,6 | G,4 D,2 | G,4 D,2 | %26
 C,2 D,2 E,2 | F,2 G,4 | D,4 A,,2 | G,,4 B,,2 | D,2 C,2 B,,2 | A,,2 G,,4 |] %32

